X: 734
T: Yonghu balu jun
L: 1/8
M: 3/4
K: G
d d e d/ d/ [I:setbarnb 1]| 
c ed4 | 
[M:2/4]d B A B/ B/ | 
[M:3/4]E GG4 | 
[M:2/4]d e e d/ d/ | 
[M:3/4]c BA4 | 
[M:2/4]d G F E | 
A G F E | 
D E/ E/ A E | 
D4 |]

@@@ Tune index: 9608
